webfront/src/assets/icons/heroicons/outline/cube.svg

<svg xmlns="http://www.w3.org/2000/svg" fill="none" viewBox="0 0 24 24" stroke-width="1.5" stroke="currentColor" class="size-6">
  <path stroke-linecap="round" stroke-linejoin="round" d="m21 7.5-9-5.25L3 7.5m18 0-9 5.25m9-5.25v9l-9 5.25M3 7.5l9 5.25M3 7.5v9l9 5.25m0-9v9" />
</svg>

<svg width="24" height="24" viewBox="0 0 24 24" fill="none" xmlns="http://www.w3.org/2000/svg">
<path d="M21 7.5L12 2.25L3 7.5M21 7.5L12 12.75M21 7.5V16.5L12 21.75M3 7.5L12 12.75M3 7.5V16.5L12 21.75M12 12.75V21.75" stroke="currentColor" stroke-width="1.5" stroke-linecap="round" stroke-linejoin="round"/>
</svg>
